!!!COM: Bach, Johann Sebastian
!!!OPR: Joh. Seb. Bachs vierstimmige Choralgesänge
!!!XEN: Four-part Chorales
!!!OTL: 72. Heilig, Heilig!
!!!SCT: BWV 325
!!!SCA: Thematisch-systematisches Verzeichnis der musikalischen Werke Johann Sebastian Bach: Bach-Werke-Verzeichnis (Schmieder)
!!!YOR: Bach Gesellschaft Edition xxxix
!!!ENC: Steven Rasmussen
!!!CDT: 1685/3//-1750/7/28/
!!!OCY: Deutschland
!!!YEC: Copyright (c) 1994, 2000 Center for Computer Assisted Research in the Humanities
!!!YEM: Rights to all derivative editions reserved
!!!YEN: United States of America
**kern	**silbe	**kern	**kern	**kern
*I:[SOPRANO]	*I:[SOPRANO]	*I:[ALTO]	*I:[TENORE]	*I:[BASSO]
*clefG2	*	*clefG2	*clefGv2	*clefF4
*k[b-]	*	*k[b-]	*k[b-]	*k[b-]
*F:	*	*F:	*F:	*F:
*M4/4	*	*M4/4	*M4/4	*M4/4
=1-	=1-	=1-	=1-	=1-
4cc	Hei-	4f	8AL	8FFL
.	.	.	8B-J	8GG
4a	-lig,	[4f	[4c	8AA
.	.	.	.	8BB-J
2g	Hei-	8fL]	8cL]	2C
.	.	16eL	8GJ	.
.	.	16dJJ	.	.
.	.	4e	8cL	.
.	.	.	8B-J	.
=2	=2	=2	=2	=2
2f;	-lig!	2c;	2A;	2FF;
4cc	.	4g	4.c	8EL
.	.	.	.	8CJ
4dd	.	4g	.	8GL
.	.	.	8Bn	8GGJ
=3	=3	=3	=3	=3
2cc;	.	2g;	2e;	2C;
4ff	.	4f	4A	8DL
.	.	.	.	8CJ
4ff	.	4g	[4d	8BBnL
.	.	.	.	8GGJ
=4	=4	=4	=4	=4
4ee	.	4g	8dL]	8CL
.	.	.	16cL	8EJ
.	.	.	16BnJJ	.
4ee	.	8eL	[4c	8AL
.	.	16fL	.	8GJ
.	.	16gJJ	.	.
4.dd	.	[4a	8cL]	8FL
.	.	.	16BL	8DJ
.	.	.	16AJJ	.
.	.	8aL]	4B	8GL
8cc	.	16gL	.	8GGJ
.	.	16fJJ	.	.
=5	=5	=5	=5	=5
2cc;	.	2e;	2G;	2C;
4cc	.	4f	4A	4F
4dd	.	4f	8B-L	4BB-
.	.	.	8AJ	.
=6	=6	=6	=6	=6
4cc	.	4e	4G	4C
4b-	.	8dL	8FL	8DL
.	.	8cJ	8GJ	8EJ
2a;	.	2c;	2A;	2F;
=7	=7	=7	=7	=7
4r	.	4r	4r	4r
4g	.	8eL	4c	8CL
.	.	8gJ	.	8EJ
8aL	.	4f	4c	8FL
8bnJ	.	.	.	8GJ
4cc	.	4e	4c	8AL
.	.	.	.	8GJ
=8	=8	=8	=8	=8
4cc	.	8aL	[4d	8FL
.	.	16gL	.	8DJ
.	.	16fJJ	.	.
4bn	.	4g	8dL]	8GL
.	.	.	16eL	8GGJ
.	.	.	16fJJ	.
2cc;	.	2g;	2e;	2C;
=9	=9	=9	=9	=9
4cc	.	4a	4f	8FL
.	.	.	.	8E
4dd	.	[4a	4f	8D
.	.	.	.	8FJ
4b-	.	8aL]	4d	8GL
.	.	16gL	.	8F
.	.	16fJJ	.	.
4b-	.	[4g	4c	8E
.	.	.	.	8CJ
=10	=10	=10	=10	=10
4a	.	8gL]	4c	8FL
.	.	16fL	.	8EJ
.	.	16eJJ	.	.
4b-	.	[4f	8B-L	8DL
.	.	.	8dJ	8BB-J
4a	.	8fL]	4.c	4C
.	.	16eL	.	.
.	.	16dJJ	.	.
4g	.	4e	.	4CC
.	.	.	8B-	.
=11	=11	=11	=11	=11
2f;	.	2c;	2A;	2FF;
4r	.	4r	4r	4r
4a	.	4f	[4c	4F
=12	=12	=12	=12	=12
2g	.	4f	4.c]	2C
.	.	4e	.	.
.	.	.	8B-	.
4f;	.	4d;	4A;	4D;
4cc	.	4g	4G	4E
=13	=13	=13	=13	=13
4cc	.	4a	4d	4F
4bn	.	8gL	4d	4G
.	.	8fJ	.	.
4cc;	.	4e;	4c;	4A;
4ff	.	4f	4c	4A
=14	=14	=14	=14	=14
4ff	.	4g	4d	4Bn
4ee	.	4g	8dL	4c
.	.	.	[8cJ	.
2dd	.	4a	8cL]	4F
.	.	.	16BnL	.
.	.	.	16AJJ	.
.	.	8gL	4B	4G
.	.	8fJ	.	.
=15	=15	=15	=15	=15
2cc;	.	2e;	2G;	2C;
4cc	.	4f	4A	8FL
.	.	.	.	8EJ
8ddL	.	8fL	4A	8DL
8ccJ	.	8eJ	.	8FJ
=16	=16	=16	=16	=16
4b-	.	4d	8B-L	8GL
.	.	.	8AJ	8FJ
4b-	.	4c	4G	8EL
.	.	.	.	8CJ
4a	.	8cL	8FL	8FL
.	.	16dL	8AJ	8E
.	.	16eJJ	.	.
8b-L	.	[4f	[4d	8D
8aJ	.	.	.	8CJ
=17	=17	=17	=17	=17
2g	.	8fL]	8dL]	8BB-L
.	.	16eL	8B-J	8GGJ
.	.	16dJJ	.	.
.	.	4e	8GL	4C
.	.	.	16cL	.
.	.	.	16B-JJ	.
2f;	.	2c;	2A;	2FF;
==|!	==|!	==|!	==|!	==|!
*-	*-	*-	*-	*-
!!!RWG: Key is interpreted using the Humdrum key tool.
!!!END: 1994/06/07
!!!EMD: Converted from MuseData to Humdrum Dec 19, 2000, by Andreas Kornstaedt using muse2kern.
!!!EED: Craig Stuart Sapp
!!!EEV: 2024/03/31
!!!ONB: Some non-unicode characters
